;FLAVOR:Marlin
;TIME:2240
;Filament used: 1.57666m
;Layer height: 0.2
;Generated with Cura_SteamEngine 3.6.0
M82 ;absolute extrusion mode
G21 ; set units to millimeters
G90 ; use absolute positioning
M82 ; absolute extrusion mode
M104 S215 ; set extruder temp
M140 S60 ; set bed temp
M190 S60 ; wait for bed temp
M109 S215 ; wait for extruder temp
G28 W ; home all without mesh bed level
G80 ; mesh bed leveling
G92 E0.0 ; reset extruder distance position
G1 Y-3.0 F1000.0 ; go outside print area
G1 X60.0 E9.0 F1000.0 ; intro line
G1 X100.0 E21.5 F1000.0 ; intro line
G92 E0.0 ; reset extruder distance position
G92 E0
G1 F2100 E-0.8
;LAYER_COUNT:179
;LAYER:0
M107
G0 F3600 X107.097 Y72.968 Z0.15
;TYPE:SKIRT
G1 F2100 E0
G1 F1800 X107.58 Y72.344 E0.01968
G1 X107.985 Y71.907 E0.03455
G1 X108.102 Y71.79 E0.03867
G1 X108.688 Y71.26 E0.05838
G1 X109.324 Y70.793 E0.07807
G1 X110.004 Y70.392 E0.09776
G1 X110.722 Y70.062 E0.11747
G1 X111.469 Y69.807 E0.13716
G1 X112.238 Y69.628 E0.15686
G1 X113.022 Y69.528 E0.17657
G1 X113.617 Y69.505 E0.19142
G1 X136.383 Y69.505 E0.75933
G1 X137.172 Y69.545 E0.77903
G1 X137.952 Y69.664 E0.79871
G1 X138.717 Y69.862 E0.81843
G1 X139.457 Y70.136 E0.83811
G1 X140.166 Y70.484 E0.85781
G1 X140.837 Y70.902 E0.87753
G1 X141.461 Y71.385 E0.89722
G1 X141.898 Y71.79 E0.91208
G1 X142.015 Y71.907 E0.91621
G1 X142.545 Y72.493 E0.93592
G1 X143.012 Y73.129 E0.9556
G1 X143.413 Y73.809 E0.97529
G1 X143.743 Y74.527 E0.995
G1 X143.998 Y75.274 E1.01469
G1 X144.177 Y76.043 E1.03439
G1 X144.277 Y76.827 E1.0541
G1 X144.3 Y77.422 E1.06896
G1 X144.3 Y84.431 E1.2438
G1 X144.26 Y85.22 E1.2635
G1 X144.141 Y86 E1.28319
G1 X143.943 Y86.765 E1.3029
G1 X143.669 Y87.505 E1.32258
G1 X143.321 Y88.214 E1.34228
G1 X143.256 Y88.319 E1.34536
G1 X143.325 Y88.418 E1.34837
G1 X143.707 Y89.109 E1.36807
G1 X144.018 Y89.835 E1.38777
G1 X144.253 Y90.589 E1.40747
G1 X144.411 Y91.363 E1.42718
G1 X144.5 Y92.536 E1.45652
G1 X144.5 Y117.472 E2.07855
G1 X144.46 Y118.261 E2.09826
G1 X144.341 Y119.041 E2.11794
G1 X144.143 Y119.806 E2.13766
G1 X143.869 Y120.546 E2.15734
G1 X143.521 Y121.255 E2.17704
G1 X143.252 Y121.687 E2.18974
G1 X143.413 Y121.96 E2.19764
G1 X143.743 Y122.678 E2.21735
G1 X143.998 Y123.425 E2.23704
G1 X144.177 Y124.194 E2.25674
G1 X144.277 Y124.978 E2.27646
G1 X144.3 Y125.573 E2.29131
G1 X144.3 Y132.578 E2.46605
G1 X144.26 Y133.367 E2.48576
G1 X144.141 Y134.147 E2.50544
G1 X143.943 Y134.912 E2.52515
G1 X143.669 Y135.652 E2.54483
G1 X143.321 Y136.361 E2.56454
G1 X142.903 Y137.032 E2.58426
G1 X142.42 Y137.656 E2.60394
G1 X142.015 Y138.093 E2.6188
G1 X141.898 Y138.21 E2.62293
G1 X141.312 Y138.74 E2.64264
G1 X140.676 Y139.207 E2.66232
G1 X139.996 Y139.608 E2.68202
G1 X139.278 Y139.938 E2.70173
G1 X138.531 Y140.193 E2.72142
G1 X137.762 Y140.372 E2.74111
G1 X136.978 Y140.472 E2.76083
G1 X136.383 Y140.495 E2.77568
G1 X113.617 Y140.495 E3.34358
G1 X112.828 Y140.455 E3.36329
G1 X112.048 Y140.336 E3.38297
G1 X111.283 Y140.138 E3.40268
G1 X110.543 Y139.864 E3.42237
G1 X109.834 Y139.516 E3.44207
G1 X109.163 Y139.098 E3.46179
G1 X108.539 Y138.615 E3.48147
G1 X108.102 Y138.21 E3.49633
G1 X107.985 Y138.093 E3.50046
G1 X107.455 Y137.507 E3.52017
G1 X106.988 Y136.871 E3.53985
G1 X106.587 Y136.191 E3.55955
G1 X106.257 Y135.473 E3.57926
G1 X106.002 Y134.726 E3.59895
G1 X105.823 Y133.957 E3.61864
G1 X105.723 Y133.173 E3.63836
G1 X105.7 Y132.578 E3.65321
G1 X105.7 Y125.612 E3.82698
G1 X105.74 Y124.823 E3.84669
G1 X105.859 Y124.043 E3.86637
G1 X106.057 Y123.278 E3.88608
G1 X106.331 Y122.538 E3.90577
G1 X106.679 Y121.829 E3.92547
G1 X107.097 Y121.158 E3.94519
G1 X107.58 Y120.534 E3.96487
G1 X107.985 Y120.097 E3.97973
G1 X108.102 Y119.98 E3.98386
G1 X108.688 Y119.45 E4.00357
G1 X109.324 Y118.983 E4.02325
G1 X110.004 Y118.582 E4.04295
G1 X110.722 Y118.252 E4.06266
G1 X111.469 Y117.997 E4.08235
G1 X112.238 Y117.818 E4.10204
G1 X113.022 Y117.718 E4.12176
G1 X113.604 Y117.695 E4.13629
G1 X125.505 Y117.675 E4.43316
G1 X125.5 Y117.469 E4.4383
G1 X125.5 Y106.835 E4.70357
G1 X119.934 Y106.835 E4.84241
G1 X119.145 Y106.795 E4.86212
G1 X118.365 Y106.676 E4.8818
G1 X117.6 Y106.478 E4.90151
G1 X116.86 Y106.204 E4.9212
G1 X116.151 Y105.856 E4.9409
G1 X115.48 Y105.438 E4.96062
G1 X114.856 Y104.955 E4.9803
G1 X114.419 Y104.55 E4.99517
G1 X114.185 Y104.316 E5.00342
G1 X113.655 Y103.73 E5.02313
G1 X113.188 Y103.094 E5.04281
G1 X112.787 Y102.414 E5.06251
G1 X112.457 Y101.696 E5.08222
G1 X112.202 Y100.949 E5.10191
G1 X112.023 Y100.18 E5.1216
G1 X111.923 Y99.396 E5.14132
G1 X111.9 Y98.801 E5.15617
G1 X111.9 Y92.505 E5.31323
G1 X111.92 Y92.113 E5.32302
G1 X111.269 Y91.943 E5.3398
G1 X110.529 Y91.668 E5.35949
G1 X109.821 Y91.319 E5.37918
G1 X109.151 Y90.9 E5.3989
G1 X108.527 Y90.416 E5.4186
G1 X108.102 Y90.02 E5.43309
G1 X107.985 Y89.903 E5.43721
G1 X107.455 Y89.317 E5.45692
G1 X106.988 Y88.681 E5.47661
G1 X106.587 Y88.001 E5.4963
G1 X106.257 Y87.283 E5.51601
G1 X106.002 Y86.536 E5.5357
G1 X105.823 Y85.767 E5.5554
G1 X105.723 Y84.983 E5.57511
G1 X105.7 Y84.388 E5.58996
G1 X105.7 Y77.422 E5.76373
G1 X105.74 Y76.633 E5.78344
G1 X105.859 Y75.853 E5.80312
G1 X106.057 Y75.088 E5.82283
G1 X106.331 Y74.348 E5.84252
G1 X106.679 Y73.639 E5.86222
G1 X107.097 Y72.968 E5.88194
G0 F3600 X107.494 Y73.099
G1 F1800 X107.975 Y72.499 E5.90112
G1 X108.267 Y72.189 E5.91175
G1 X108.384 Y72.072 E5.91587
G1 X108.956 Y71.558 E5.93506
G1 X109.578 Y71.105 E5.95425
G1 X110.243 Y70.719 E5.97343
G1 X110.945 Y70.404 E5.99262
G1 X111.676 Y70.164 E6.01182
G1 X112.427 Y70.001 E6.03099
G1 X113.192 Y69.917 E6.05018
G1 X113.617 Y69.905 E6.06079
G1 X136.383 Y69.905 E6.62869
G1 X137.151 Y69.945 E6.64787
G1 X137.911 Y70.064 E6.66706
G1 X138.654 Y70.262 E6.68624
G1 X139.373 Y70.536 E6.70544
G1 X140.059 Y70.883 E6.72462
G1 X140.706 Y71.299 E6.7438
G1 X141.306 Y71.78 E6.76299
G1 X141.616 Y72.072 E6.77361
G1 X141.733 Y72.189 E6.77774
G1 X142.247 Y72.761 E6.79692
G1 X142.7 Y73.383 E6.81611
G1 X143.086 Y74.048 E6.8353
G1 X143.401 Y74.75 E6.85449
G1 X143.641 Y75.481 E6.87368
G1 X143.804 Y76.232 E6.89285
G1 X143.888 Y76.997 E6.91205
G1 X143.9 Y77.422 E6.92265
G1 X143.9 Y84.431 E7.0975
G1 X143.86 Y85.199 E7.11668
G1 X143.741 Y85.959 E7.13587
G1 X143.543 Y86.702 E7.15505
G1 X143.269 Y87.421 E7.17424
G1 X142.922 Y88.107 E7.19342
G1 X142.779 Y88.33 E7.20003
G1 X143.088 Y88.801 E7.21408
G1 X143.441 Y89.484 E7.23326
G1 X143.722 Y90.2 E7.25245
G1 X143.926 Y90.942 E7.27164
G1 X144.053 Y91.7 E7.29081
G1 X144.1 Y92.536 E7.3117
G1 X144.1 Y117.472 E7.93373
G1 X144.06 Y118.24 E7.95292
G1 X143.941 Y119 E7.9721
G1 X143.743 Y119.743 E7.99129
G1 X143.469 Y120.462 E8.01048
G1 X143.122 Y121.148 E8.02966
G1 X142.782 Y121.676 E8.04532
G1 X143.086 Y122.199 E8.06041
G1 X143.401 Y122.901 E8.07961
G1 X143.641 Y123.632 E8.0988
G1 X143.804 Y124.383 E8.11797
G1 X143.888 Y125.148 E8.13717
G1 X143.9 Y125.573 E8.14777
G1 X143.9 Y132.578 E8.32251
G1 X143.86 Y133.346 E8.3417
G1 X143.741 Y134.106 E8.36089
G1 X143.543 Y134.849 E8.38007
G1 X143.269 Y135.568 E8.39926
G1 X142.922 Y136.254 E8.41844
G1 X142.506 Y136.901 E8.43762
G1 X142.025 Y137.501 E8.45681
G1 X141.733 Y137.811 E8.46743
G1 X141.616 Y137.928 E8.47156
G1 X141.044 Y138.442 E8.49074
G1 X140.422 Y138.895 E8.50994
G1 X139.757 Y139.281 E8.52912
G1 X139.055 Y139.596 E8.54831
G1 X138.324 Y139.836 E8.5675
G1 X137.573 Y139.999 E8.58667
G1 X136.808 Y140.083 E8.60587
G1 X136.383 Y140.095 E8.61648
G1 X113.617 Y140.095 E9.18438
G1 X112.849 Y140.055 E9.20356
G1 X112.089 Y139.936 E9.22275
G1 X111.346 Y139.738 E9.24193
G1 X110.627 Y139.464 E9.26112
G1 X109.941 Y139.117 E9.2803
G1 X109.294 Y138.701 E9.29949
G1 X108.694 Y138.22 E9.31867
G1 X108.384 Y137.928 E9.3293
G1 X108.267 Y137.811 E9.33342
G1 X107.753 Y137.239 E9.35261
G1 X107.3 Y136.617 E9.3718
G1 X106.914 Y135.952 E9.39098
G1 X106.599 Y135.25 E9.41017
G1 X106.359 Y134.519 E9.42937
G1 X106.196 Y133.768 E9.44854
G1 X106.112 Y133.003 E9.46773
G1 X106.1 Y132.578 E9.47834
G1 X106.1 Y125.612 E9.65211
G1 X106.14 Y124.844 E9.67129
G1 X106.259 Y124.084 E9.69048
G1 X106.457 Y123.341 E9.70966
G1 X106.731 Y122.622 E9.72886
G1 X107.078 Y121.936 E9.74803
G1 X107.494 Y121.289 E9.76722
G1 X107.975 Y120.689 E9.7864
G1 X108.267 Y120.379 E9.79703
G1 X108.384 Y120.262 E9.80115
G1 X108.956 Y119.748 E9.82034
G1 X109.578 Y119.295 E9.83953
G1 X110.243 Y118.909 E9.85871
G1 X110.945 Y118.594 E9.87791
G1 X111.676 Y118.354 E9.8971
G1 X112.427 Y118.191 E9.91627
G1 X113.192 Y118.107 E9.93547
G1 X113.604 Y118.095 E9.94575
G1 X125.934 Y118.074 E10.25332
G1 X125.9 Y117.469 E10.26844
G1 X125.9 Y106.435 E10.54368
G1 X119.934 Y106.435 E10.6925
G1 X119.166 Y106.395 E10.71169
G1 X118.406 Y106.276 E10.73088
G1 X117.663 Y106.078 E10.75006
G1 X116.944 Y105.804 E10.76925
G1 X116.258 Y105.457 E10.78843
G1 X115.611 Y105.041 E10.80762
G1 X115.011 Y104.56 E10.8268
G1 X114.701 Y104.268 E10.83742
G1 X114.467 Y104.034 E10.84568
G1 X113.953 Y103.462 E10.86486
G1 X113.5 Y102.84 E10.88406
G1 X113.114 Y102.175 E10.90324
G1 X112.799 Y101.473 E10.92243
G1 X112.559 Y100.742 E10.94162
G1 X112.396 Y99.991 E10.96079
G1 X112.312 Y99.226 E10.97999
G1 X112.3 Y98.801 E10.9906
G1 X112.3 Y92.505 E11.14765
G1 X112.338 Y91.785 E11.16564
G1 X112.075 Y91.743 E11.17228
G1 X111.332 Y91.544 E11.19147
G1 X110.614 Y91.268 E11.21065
G1 X109.928 Y90.92 E11.22984
G1 X109.282 Y90.503 E11.24902
G1 X108.683 Y90.02 E11.26822
G1 X108.384 Y89.738 E11.27847
G1 X108.267 Y89.621 E11.2826
G1 X107.753 Y89.049 E11.30178
G1 X107.3 Y88.427 E11.32098
G1 X106.914 Y87.762 E11.34016
G1 X106.599 Y87.06 E11.35935
G1 X106.359 Y86.329 E11.37854
G1 X106.196 Y85.578 E11.39771
G1 X106.112 Y84.813 E11.41691
G1 X106.1 Y84.388 E11.42752
G1 X106.1 Y77.422 E11.60128
G1 X106.14 Y76.654 E11.62047
G1 X106.259 Y75.894 E11.63966
G1 X106.457 Y75.151 E11.65884
G1 X106.731 Y74.432 E11.67803
G1 X107.078 Y73.746 E11.69721
G1 X107.494 Y73.099 E11.7164
G0 F3600 X107.892 Y73.233
G1 F1800 X108.55 Y72.472 E11.74149
G1 X108.667 Y72.355 E11.74562
G1 X109.224 Y71.855 E11.76429
G1 X109.83 Y71.418 E11.78293
G1 X110.48 Y71.047 E11.8016
G1 X111.166 Y70.748 E11.82026
G1 X111.88 Y70.524 E11.83893
G1 X112.613 Y70.377 E11.85758
G1 X113.617 Y70.305 E11.88269
G1 X136.383 Y70.305 E12.45059
G1 X137.13 Y70.345 E12.46925
G1 X137.868 Y70.464 E12.4879
G1 X138.59 Y70.662 E12.50657
G1 X139.286 Y70.935 E12.52522
G1 X139.949 Y71.282 E12.54389
G1 X140.572 Y71.697 E12.56256
G1 X141.333 Y72.355 E12.58766
G1 X141.45 Y72.472 E12.59178
G1 X141.95 Y73.029 E12.61046
G1 X142.387 Y73.635 E12.62909
G1 X142.758 Y74.285 E12.64776
G1 X143.057 Y74.971 E12.66643
G1 X143.281 Y75.685 E12.6851
G1 X143.428 Y76.418 E12.70375
G1 X143.5 Y77.422 E12.72886
G1 X143.5 Y84.431 E12.9037
G1 X143.46 Y85.178 E12.92236
G1 X143.341 Y85.916 E12.941
G1 X143.143 Y86.638 E12.95968
G1 X142.87 Y87.334 E12.97833
G1 X142.523 Y87.997 E12.997
G1 X142.293 Y88.342 E13.00734
G1 X142.451 Y88.545 E13.01376
G1 X142.844 Y89.181 E13.0324
G1 X143.167 Y89.856 E13.05107
G1 X143.416 Y90.561 E13.06972
G1 X143.588 Y91.289 E13.08838
G1 X143.682 Y92.032 E13.10706
G1 X143.7 Y92.536 E13.11964
G1 X143.7 Y117.472 E13.74168
G1 X143.66 Y118.219 E13.76034
G1 X143.541 Y118.957 E13.77898
G1 X143.343 Y119.679 E13.79766
G1 X143.07 Y120.375 E13.81631
G1 X142.723 Y121.038 E13.83498
G1 X142.308 Y121.661 E13.85365
G1 X142.302 Y121.668 E13.85388
G1 X142.387 Y121.786 E13.85751
G1 X142.758 Y122.436 E13.87618
G1 X143.057 Y123.122 E13.89484
G1 X143.281 Y123.836 E13.91351
G1 X143.428 Y124.569 E13.93216
G1 X143.5 Y125.573 E13.95727
G1 X143.5 Y132.578 E14.13201
G1 X143.46 Y133.325 E14.15067
G1 X143.341 Y134.063 E14.16932
G1 X143.143 Y134.785 E14.18799
G1 X142.87 Y135.481 E14.20664
G1 X142.523 Y136.144 E14.22531
G1 X142.108 Y136.767 E14.24398
G1 X141.45 Y137.528 E14.26908
G1 X141.333 Y137.645 E14.2732
G1 X140.776 Y138.145 E14.29187
G1 X140.17 Y138.582 E14.31051
G1 X139.52 Y138.953 E14.32918
G1 X138.834 Y139.252 E14.34785
G1 X138.12 Y139.476 E14.36652
G1 X137.387 Y139.623 E14.38516
G1 X136.383 Y139.695 E14.41027
G1 X113.617 Y139.695 E14.97817
G1 X112.87 Y139.655 E14.99683
G1 X112.132 Y139.536 E15.01548
G1 X111.41 Y139.338 E15.03416
G1 X110.714 Y139.065 E15.05281
G1 X110.051 Y138.718 E15.07147
G1 X109.428 Y138.303 E15.09015
G1 X108.667 Y137.645 E15.11524
G1 X108.55 Y137.528 E15.11937
G1 X108.05 Y136.971 E15.13804
G1 X107.613 Y136.365 E15.15668
G1 X107.242 Y135.715 E15.17535
G1 X106.943 Y135.029 E15.19401
G1 X106.719 Y134.315 E15.21268
G1 X106.572 Y133.582 E15.23133
G1 X106.5 Y132.578 E15.25644
G1 X106.5 Y125.612 E15.43021
G1 X106.54 Y124.865 E15.44887
G1 X106.659 Y124.127 E15.46752
G1 X106.857 Y123.405 E15.48619
G1 X107.13 Y122.709 E15.50484
G1 X107.477 Y122.046 E15.52351
G1 X107.892 Y121.423 E15.54218
G1 X108.55 Y120.662 E15.56728
G1 X108.667 Y120.545 E15.5714
G1 X109.224 Y120.045 E15.59007
G1 X109.83 Y119.608 E15.60871
G1 X110.48 Y119.237 E15.62738
G1 X111.166 Y118.938 E15.64605
G1 X111.88 Y118.714 E15.66472
G1 X112.613 Y118.567 E15.68336
G1 X113.605 Y118.495 E15.70817
G1 X126.381 Y118.473 E16.02687
G1 X126.319 Y117.98 E16.03927
G1 X126.3 Y117.469 E16.05202
G1 X126.3 Y106.035 E16.33725
G1 X119.934 Y106.035 E16.49605
G1 X119.187 Y105.995 E16.51471
G1 X118.449 Y105.876 E16.53335
G1 X117.727 Y105.678 E16.55203
G1 X117.031 Y105.405 E16.57068
G1 X116.368 Y105.058 E16.58935
G1 X115.745 Y104.643 E16.60802
G1 X114.984 Y103.985 E16.63312
G1 X114.75 Y103.751 E16.64137
G1 X114.25 Y103.194 E16.66004
G1 X113.813 Y102.588 E16.67868
G1 X113.442 Y101.938 E16.69735
G1 X113.143 Y101.252 E16.71602
G1 X112.919 Y100.538 E16.73468
G1 X112.772 Y99.805 E16.75333
G1 X112.7 Y98.801 E16.77844
G1 X112.7 Y92.505 E16.93549
G1 X112.74 Y91.758 E16.95416
G1 X112.789 Y91.453 E16.96186
G1 X112.119 Y91.343 E16.9788
G1 X111.397 Y91.144 E16.99748
G1 X110.702 Y90.869 E17.01612
G1 X110.039 Y90.522 E17.03479
G1 X109.418 Y90.105 E17.05345
G1 X108.667 Y89.455 E17.07823
G1 X108.55 Y89.338 E17.08235
G1 X108.05 Y88.781 E17.10103
G1 X107.613 Y88.175 E17.11966
G1 X107.242 Y87.525 E17.13833
G1 X106.943 Y86.839 E17.157
G1 X106.719 Y86.125 E17.17567
G1 X106.572 Y85.392 E17.19432
G1 X106.5 Y84.388 E17.21942
G1 X106.5 Y77.422 E17.39319
G1 X106.54 Y76.675 E17.41185
G1 X106.659 Y75.937 E17.4305
G1 X106.857 Y75.215 E17.44918
G1 X107.13 Y74.519 E17.46783
G1 X107.477 Y73.856 E17.48649
G1 X107.892 Y73.233 E17.50517
G0 F3600 X108.289 Y73.372
G1 F1800 X108.833 Y72.755 E17.52568
G1 X108.95 Y72.638 E17.52981
G1 X109.491 Y72.154 E17.54792
G1 X110.082 Y71.731 E17.56605
G1 X110.716 Y71.377 E17.58416
G1 X111.385 Y71.094 E17.60228
G1 X112.081 Y70.886 E17.6204
G1 X112.796 Y70.756 E17.63853
G1 X113.617 Y70.705 E17.65905
G1 X136.383 Y70.705 E18.22695
G1 X137.108 Y70.745 E18.24506
G1 X137.825 Y70.864 E18.26319
G1 X138.524 Y71.062 E18.28132
G1 X139.197 Y71.335 E18.29943
G1 X139.836 Y71.68 E18.31755
G1 X140.433 Y72.094 E18.33567
G1 X141.05 Y72.638 E18.35619
G1 X141.167 Y72.755 E18.36032
G1 X141.651 Y73.296 E18.37843
G1 X142.074 Y73.887 E18.39655
G1 X142.428 Y74.521 E18.41467
G1 X142.711 Y75.19 E18.43279
G1 X142.919 Y75.886 E18.45091
G1 X143.049 Y76.601 E18.46904
G1 X143.1 Y77.422 E18.48956
G1 X143.1 Y84.431 E18.6644
G1 X143.06 Y85.156 E18.68251
G1 X142.941 Y85.873 E18.70064
G1 X142.743 Y86.572 E18.71876
G1 X142.47 Y87.245 E18.73688
G1 X142.125 Y87.884 E18.75499
G1 X141.802 Y88.35 E18.76914
G1 X142.228 Y88.93 E18.78709
G1 X142.591 Y89.559 E18.8052
G1 X142.882 Y90.225 E18.82333
G1 X143.099 Y90.918 E18.84145
G1 X143.238 Y91.631 E18.85957
G1 X143.3 Y92.536 E18.8822
G1 X143.3 Y117.472 E19.50423
G1 X143.26 Y118.197 E19.52234
G1 X143.141 Y118.914 E19.54047
G1 X142.943 Y119.613 E19.5586
G1 X142.67 Y120.286 E19.57671
G1 X142.325 Y120.925 E19.59483
G1 X141.911 Y121.522 E19.61295
G1 X141.798 Y121.652 E19.61725
G1 X142.074 Y122.038 E19.62908
G1 X142.428 Y122.672 E19.6472
G1 X142.711 Y123.341 E19.66532
G1 X142.919 Y124.037 E19.68344
G1 X143.049 Y124.752 E19.70157
G1 X143.1 Y125.573 E19.72208
G1 X143.1 Y132.578 E19.89683
G1 X143.06 Y133.303 E19.91494
G1 X142.941 Y134.02 E19.93307
G1 X142.743 Y134.719 E19.95119
G1 X142.47 Y135.392 E19.96931
G1 X142.125 Y136.031 E19.98742
G1 X141.711 Y136.628 E20.00554
G1 X141.167 Y137.245 E20.02606
