;FLAVOR:Marlin
;TIME:3999
;Filament used: 2.67804m
;Layer height: 0.2
;Generated with Cura_SteamEngine 3.6.0
M82 ;absolute extrusion mode
G21 ; set units to millimeters
G90 ; use absolute positioning
M82 ; absolute extrusion mode
M104 S215 ; set extruder temp
M140 S60 ; set bed temp
M190 S60 ; wait for bed temp
M109 S215 ; wait for extruder temp
G28 W ; home all without mesh bed level
G80 ; mesh bed leveling
G92 E0.0 ; reset extruder distance position
G1 Y-3.0 F1000.0 ; go outside print area
G1 X60.0 E9.0 F1000.0 ; intro line
G1 X100.0 E21.5 F1000.0 ; intro line
G92 E0.0 ; reset extruder distance position
G92 E0
G1 F2100 E-0.8
;LAYER_COUNT:165
;LAYER:0
M107
G0 F3600 X102.932 Y76.688 Z0.15
;TYPE:SKIRT
G1 F2100 E0
G1 F1800 X103.265 Y76.268 E0.01337
G1 X103.657 Y75.902 E0.02675
G1 X104.1 Y75.598 E0.04015
G1 X104.582 Y75.364 E0.05352
G1 X105.355 Y75.153 E0.0735
G1 X108.6 Y74.647 E0.15543
G1 X113.931 Y73.58 E0.29105
G1 X114.638 Y73.51 E0.30877
G1 X135.37 Y73.51 E0.82593
G1 X136.047 Y73.574 E0.8429
G1 X142.942 Y74.894 E1.01802
G1 X144.609 Y75.146 E1.06007
G1 X145.132 Y75.266 E1.07346
G1 X145.632 Y75.462 E1.08685
G1 X146.096 Y75.73 E1.10022
G1 X146.516 Y76.063 E1.11359
G1 X146.881 Y76.456 E1.12697
G1 X147.184 Y76.898 E1.14034
G1 X147.418 Y77.381 E1.15373
G1 X147.578 Y77.893 E1.16711
G1 X147.66 Y78.423 E1.18049
G1 X147.671 Y78.698 E1.18735
G1 X147.69 Y87.682 E1.41146
G1 X147.65 Y88.227 E1.42509
G1 X146.975 Y92.695 E1.53781
G1 X146.432 Y98.118 E1.67376
G1 X146.196 Y103.573 E1.80997
G1 X146.27 Y109.035 E1.94623
G1 X146.65 Y114.464 E2.08199
G1 X147.342 Y119.912 E2.21898
G1 X147.642 Y121.72 E2.2647
G1 X147.691 Y122.309 E2.27944
G1 X147.69 Y131.29 E2.50347
G1 X147.65 Y131.825 E2.51686
G1 X147.531 Y132.348 E2.53024
G1 X147.336 Y132.848 E2.54362
G1 X147.068 Y133.312 E2.55699
G1 X146.735 Y133.732 E2.57036
G1 X146.343 Y134.098 E2.58374
G1 X145.9 Y134.402 E2.59714
G1 X145.418 Y134.636 E2.61051
G1 X144.645 Y134.847 E2.63049
G1 X141.4 Y135.353 E2.71242
G1 X136.069 Y136.42 E2.84804
G1 X135.362 Y136.49 E2.86576
G1 X114.63 Y136.49 E3.38292
G1 X113.907 Y136.417 E3.40105
G1 X109.794 Y135.574 E3.50578
G1 X105.328 Y134.844 E3.61867
G1 X104.807 Y134.718 E3.63204
G1 X104.31 Y134.517 E3.64541
G1 X103.849 Y134.243 E3.65879
G1 X103.433 Y133.904 E3.67217
G1 X103.072 Y133.508 E3.68554
G1 X102.775 Y133.062 E3.69891
G1 X102.546 Y132.576 E3.71231
G1 X102.393 Y132.063 E3.72566
G1 X102.309 Y131.291 E3.74503
G1 X102.31 Y122.309 E3.96909
G1 X102.35 Y121.771 E3.98255
G1 X103.025 Y117.302 E4.09529
G1 X103.568 Y111.882 E4.23117
G1 X103.804 Y106.427 E4.36737
G1 X103.73 Y100.965 E4.50364
G1 X103.35 Y95.536 E4.6394
G1 X102.661 Y90.109 E4.77586
G1 X102.357 Y88.277 E4.82218
G1 X102.309 Y87.689 E4.8369
G1 X102.31 Y78.71 E5.06088
G1 X102.35 Y78.175 E5.07426
G1 X102.469 Y77.652 E5.08764
G1 X102.664 Y77.152 E5.10103
G1 X102.932 Y76.688 E5.1144
G0 F3600 X103.329 Y76.818
G1 F1800 X103.66 Y76.435 E5.12703
G1 X104.046 Y76.109 E5.13963
G1 X104.479 Y75.848 E5.15224
G1 X104.948 Y75.658 E5.16486
G1 X105.417 Y75.548 E5.17688
G1 X108.671 Y75.041 E5.25903
G1 X114.01 Y73.972 E5.39486
G1 X114.638 Y73.91 E5.4106
G1 X135.37 Y73.91 E5.92776
G1 X135.972 Y73.967 E5.94284
G1 X142.881 Y75.29 E6.11832
G1 X144.55 Y75.542 E6.16043
G1 X145.042 Y75.657 E6.17303
G1 X145.51 Y75.848 E6.18564
G1 X145.942 Y76.11 E6.19824
G1 X146.328 Y76.437 E6.21086
G1 X146.657 Y76.821 E6.22348
G1 X146.922 Y77.252 E6.2361
G1 X147.115 Y77.719 E6.2487
G1 X147.232 Y78.211 E6.26132
G1 X147.271 Y78.699 E6.27353
G1 X147.29 Y87.683 E6.49764
G1 X147.254 Y88.168 E6.50977
G1 X146.579 Y92.638 E6.62254
G1 X146.032 Y98.096 E6.75937
G1 X145.796 Y103.561 E6.89582
G1 X145.87 Y109.051 E7.03278
G1 X146.252 Y114.509 E7.16927
G1 X146.943 Y119.946 E7.30598
G1 X147.248 Y121.785 E7.35248
G1 X147.291 Y122.309 E7.3656
G1 X147.29 Y131.29 E7.58963
G1 X147.25 Y131.794 E7.60224
G1 X147.131 Y132.286 E7.61487
G1 X146.936 Y132.752 E7.62747
G1 X146.671 Y133.182 E7.64007
G1 X146.34 Y133.565 E7.6527
G1 X145.954 Y133.891 E7.6653
G1 X145.521 Y134.152 E7.67791
G1 X145.052 Y134.342 E7.69054
G1 X144.583 Y134.452 E7.70255
G1 X141.329 Y134.959 E7.7847
G1 X135.99 Y136.028 E7.92053
G1 X135.362 Y136.09 E7.93627
G1 X114.63 Y136.09 E8.45343
G1 X113.987 Y136.025 E8.46955
G1 X109.861 Y135.179 E8.57462
G1 X105.393 Y134.449 E8.68755
G1 X104.902 Y134.328 E8.70017
G1 X104.436 Y134.132 E8.71278
G1 X104.007 Y133.865 E8.72538
G1 X103.626 Y133.533 E8.73799
G1 X103.301 Y133.145 E8.75061
G1 X103.041 Y132.711 E8.76323
G1 X102.854 Y132.242 E8.77583
G1 X102.742 Y131.749 E8.78844
G1 X102.709 Y131.291 E8.79989
G1 X102.71 Y122.309 E9.02395
G1 X102.746 Y121.831 E9.03591
G1 X103.421 Y117.362 E9.14865
G1 X103.968 Y111.904 E9.28548
G1 X104.204 Y106.439 E9.42194
G1 X104.13 Y100.949 E9.5589
G1 X103.748 Y95.491 E9.69538
G1 X103.056 Y90.05 E9.8322
G1 X102.752 Y88.212 E9.87867
G1 X102.709 Y87.689 E9.89176
G1 X102.71 Y78.71 E10.11575
G1 X102.75 Y78.206 E10.12836
G1 X102.869 Y77.714 E10.14098
G1 X103.064 Y77.248 E10.15359
G1 X103.329 Y76.818 E10.16619
G0 F3600 X114.546 Y77.8
;TYPE:SUPPORT
G1 F1800 X114.755 Y77.3 E10.1797
G1 X135.245 Y77.3 E10.69083
G1 X135.454 Y77.8 E10.70435
G1 X134.844 Y77.8 E10.71956
G1 X134.2 Y78.444 E10.74228
G1 X134.2 Y84.5 E10.89335
G1 X115.8 Y84.5 E11.35234
G1 X115.8 Y78.444 E11.50341
G1 X115.156 Y77.8 E11.52613
G1 X114.546 Y77.8 E11.54134
G1 F2100 E10.74134
G0 F3600 X115.96 Y80.01
G1 F2100 E11.54134
G1 F1800 X134.04 Y80.01 E11.99235
G0 F3600 X133.35 Y77.46
G1 F1800 X133.35 Y84.34 E12.16397
G0 F3600 X134.04 Y82.677
G1 F1800 X115.96 Y82.677 E12.61498
G0 F3600 X117.348 Y84.34
G1 F1800 X117.348 Y77.46 E12.7866
G0 F3600 X120.015 Y77.46
G1 F1800 X120.015 Y84.34 E12.95822
G0 F3600 X122.682 Y84.34
G1 F1800 X122.682 Y77.46 E13.12985
G0 F3600 X125.349 Y77.46
G1 F1800 X125.349 Y84.34 E13.30147
G0 F3600 X128.016 Y84.34
G1 F1800 X128.016 Y77.46 E13.47309
G0 F3600 X130.683 Y77.46
G1 F1800 X130.683 Y84.34 E13.64471
G0 F3600 X134.2 Y125.5
G1 F1800 X134.2 Y131.556 E13.79578
G1 X134.844 Y132.2 E13.8185
G1 X135.454 Y132.2 E13.83372
G1 X135.245 Y132.7 E13.84723
G1 X114.755 Y132.7 E14.35836
G1 X114.546 Y132.2 E14.37188
G1 X115.156 Y132.2 E14.38709
G1 X115.8 Y131.556 E14.40981
G1 X115.8 Y125.5 E14.56088
G1 X134.2 Y125.5 E15.01987
G0 F3600 X133.35 Y125.66
G1 F1800 X133.35 Y132.54 E15.19149
G0 F3600 X134.04 Y130.683
G1 F1800 X115.959 Y130.683 E15.64253
G0 F3600 X117.348 Y132.54
G1 F1800 X117.348 Y125.66 E15.81415
G0 F3600 X120.015 Y125.66
G1 F1800 X120.015 Y132.54 E15.98577
G0 F3600 X122.682 Y132.54
G1 F1800 X122.682 Y125.66 E16.15739
G0 F3600 X125.349 Y125.66
G1 F1800 X125.349 Y132.54 E16.32901
G0 F3600 X128.016 Y132.54
G1 F1800 X128.016 Y125.66 E16.50064
G0 F3600 X130.683 Y125.66
G1 F1800 X130.683 Y132.54 E16.67226
G0 F3600 X134.04 Y128.016
G1 F1800 X115.959 Y128.016 E17.12329
G1 F2100 E16.32329
;MESH:pan_servo_housing.STL
G0 F3600 X134.435 Y128.016
G0 X135.72 Y128.016
G0 X137.43 Y87.03
G0 X137.5 Y87.1
;TYPE:WALL-INNER
G1 F2100 E17.12329
G1 F1800 X137.5 Y122.9 E18.01633
G1 X143.5 Y122.9 E18.166
G1 X143.5 Y130.7 E18.36057
G1 X135.7 Y130.7 E18.55514
G1 X135.7 Y79.3 E19.83732
G1 X143.5 Y79.3 E20.03189
G1 X143.5 Y87.1 E20.22646
G1 X137.5 Y87.1 E20.37613
G0 F3600 X137.9 Y87.5
;TYPE:WALL-OUTER
G1 F1800 X137.9 Y122.5 E21.24921
G1 X143.9 Y122.5 E21.39888
G1 X143.9 Y131.1 E21.61341
G1 X135.3 Y131.1 E21.82794
G1 X135.3 Y78.9 E23.13007
G1 X143.9 Y78.9 E23.3446
G1 X143.9 Y87.5 E23.55913
G1 X137.9 Y87.5 E23.7088
G0 F3600 X137.9 Y87.7
G0 X137.4 Y87.7
G0 X137.11 Y86.71
;TYPE:SKIN
G1 F1800 X137.11 Y123.29 E24.62129
G1 X143.11 Y123.29 E24.77096
G1 X143.11 Y130.31 E24.94608
G1 X136.09 Y130.31 E25.12119
G1 X136.09 Y79.69 E26.38391
G1 X143.11 Y79.69 E26.55903
G1 X143.11 Y86.71 E26.73414
G1 X137.11 Y86.71 E26.88381
G0 F3600 X142.929 Y80.138
G1 F1800 X142.661 Y79.87 E26.89327
G0 F3600 X142.095 Y79.87
G1 F1800 X142.929 Y80.704 E26.92269
G0 F3600 X142.929 Y81.269
G1 F1800 X141.53 Y79.87 E26.97204
G0 F3600 X140.964 Y79.87
G1 F1800 X142.929 Y81.835 E27.04136
G0 F3600 X142.929 Y82.401
G1 F1800 X140.398 Y79.87 E27.13065
G0 F3600 X139.833 Y79.87
G1 F1800 X142.929 Y82.966 E27.23987
G0 F3600 X142.929 Y83.532
G1 F1800 X139.267 Y79.87 E27.36906
G0 F3600 X138.701 Y79.87
G1 F1800 X142.929 Y84.098 E27.51821
G0 F3600 X142.929 Y84.664
G1 F1800 X138.136 Y79.87 E27.68731
G0 F3600 X137.57 Y79.87
G1 F1800 X142.929 Y85.229 E27.87637
G0 F3600 X142.929 Y85.795
G1 F1800 X137.004 Y79.87 E28.08539
G0 F3600 X136.439 Y79.87
G1 F1800 X142.929 Y86.361 E28.31436
G0 F3600 X142.532 Y86.53
G1 F1800 X136.269 Y80.266 E28.53532
G0 F3600 X136.269 Y80.832
G1 F1800 X141.967 Y86.53 E28.73633
G0 F3600 X141.401 Y86.53
G1 F1800 X136.269 Y81.397 E28.91739
G0 F3600 X136.269 Y81.963
G1 F1800 X140.835 Y86.53 E29.07849
G0 F3600 X140.27 Y86.53
G1 F1800 X136.269 Y82.529 E29.21964
G0 F3600 X136.269 Y83.094
G1 F1800 X139.704 Y86.53 E29.34083
G0 F3600 X139.138 Y86.53
G1 F1800 X136.269 Y83.66 E29.44206
G0 F3600 X136.269 Y84.226
G1 F1800 X138.573 Y86.53 E29.52334
G0 F3600 X138.007 Y86.53
G1 F1800 X136.269 Y84.792 E29.58465
G0 F3600 X136.269 Y85.357
G1 F1800 X137.441 Y86.53 E29.62602
G0 F3600 X136.929 Y86.583
G1 F1800 X136.269 Y85.923 E29.6493
G0 F3600 X136.269 Y86.489
G1 F1800 X136.929 Y87.149 E29.67258
G0 F3600 X136.929 Y87.715
G1 F1800 X136.269 Y87.054 E29.69588
G0 F3600 X136.269 Y87.62
G1 F1800 X136.929 Y88.28 E29.71917
G0 F3600 X136.929 Y88.846
G1 F1800 X136.269 Y88.186 E29.74245
G0 F3600 X136.269 Y88.751
G1 F1800 X136.929 Y89.412 E29.76575
G0 F3600 X136.929 Y89.977
G1 F1800 X136.269 Y89.317 E29.78904
G0 F3600 X136.269 Y89.883
G1 F1800 X136.929 Y90.543 E29.81232
G0 F3600 X136.929 Y91.109
G1 F1800 X136.269 Y90.448 E29.83562
G0 F3600 X136.269 Y91.014
G1 F1800 X136.929 Y91.674 E29.8589
G0 F3600 X136.929 Y92.24
G1 F1800 X136.269 Y91.58 E29.88219
G0 F3600 X136.269 Y92.145
G1 F1800 X136.929 Y92.806 E29.90549
G0 F3600 X136.929 Y93.372
G1 F1800 X136.269 Y92.711 E29.92879
G0 F3600 X136.269 Y93.277
G1 F1800 X136.929 Y93.937 E29.95207
G0 F3600 X136.929 Y94.503
G1 F1800 X136.269 Y93.842 E29.97537
G0 F3600 X136.269 Y94.408
G1 F1800 X136.929 Y95.069 E29.99867
G0 F3600 X136.929 Y95.634
G1 F1800 X136.269 Y94.974 E30.02196
G0 F3600 X136.269 Y95.54
G1 F1800 X136.929 Y96.2 E30.04524
G0 F3600 X136.929 Y96.766
G1 F1800 X136.269 Y96.105 E30.06854
G0 F3600 X136.269 Y96.671
G1 F1800 X136.929 Y97.331 E30.09182
G0 F3600 X136.929 Y97.897
G1 F1800 X136.269 Y97.237 E30.11511
G0 F3600 X136.269 Y97.802
G1 F1800 X136.929 Y98.463 E30.13841
G0 F3600 X136.929 Y99.028
G1 F1800 X136.269 Y98.368 E30.16169
G0 F3600 X136.269 Y98.934
G1 F1800 X136.929 Y99.594 E30.18497
G0 F3600 X136.929 Y100.16
G1 F1800 X136.269 Y99.499 E30.20828
G0 F3600 X136.269 Y100.065
G1 F1800 X136.929 Y100.725 E30.23156
G0 F3600 X136.929 Y101.291
G1 F1800 X136.269 Y100.631 E30.25484
G0 F3600 X136.269 Y101.196
G1 F1800 X136.929 Y101.857 E30.27814
G0 F3600 X136.929 Y102.423
G1 F1800 X136.269 Y101.762 E30.30144
G0 F3600 X136.269 Y102.328
G1 F1800 X136.929 Y102.988 E30.32473
G0 F3600 X136.929 Y103.554
G1 F1800 X136.269 Y102.893 E30.34803
G0 F3600 X136.269 Y103.459
G1 F1800 X136.929 Y104.12 E30.37133
G0 F3600 X136.929 Y104.685
G1 F1800 X136.269 Y104.025 E30.39461
G0 F3600 X136.269 Y104.59
G1 F1800 X136.929 Y105.251 E30.41791
G0 F3600 X136.929 Y105.817
G1 F1800 X136.269 Y105.156 E30.44121
G0 F3600 X136.269 Y105.722
G1 F1800 X136.929 Y106.382 E30.4645
G0 F3600 X136.929 Y106.948
G1 F1800 X136.269 Y106.288 E30.48778
G0 F3600 X136.269 Y106.853
G1 F1800 X136.929 Y107.514 E30.51108
G0 F3600 X136.929 Y108.079
G1 F1800 X136.269 Y107.419 E30.53437
G0 F3600 X136.269 Y107.985
G1 F1800 X136.929 Y108.645 E30.55765
G0 F3600 X136.929 Y109.211
G1 F1800 X136.269 Y108.55 E30.58095
G0 F3600 X136.269 Y109.116
G1 F1800 X136.929 Y109.776 E30.60423
G0 F3600 X136.929 Y110.342
G1 F1800 X136.269 Y109.682 E30.62752
G0 F3600 X136.269 Y110.247
G1 F1800 X136.929 Y110.908 E30.65082
G0 F3600 X136.929 Y111.473
G1 F1800 X136.269 Y110.813 E30.6741
G0 F3600 X136.269 Y111.379
G1 F1800 X136.929 Y112.039 E30.69738
G0 F3600 X136.929 Y112.605
G1 F1800 X136.269 Y111.944 E30.72068
G0 F3600 X136.269 Y112.51
G1 F1800 X136.929 Y113.171 E30.74399
G0 F3600 X136.929 Y113.736
G1 F1800 X136.269 Y113.076 E30.76727
G0 F3600 X136.269 Y113.641
G1 F1800 X136.929 Y114.302 E30.79057
G0 F3600 X136.929 Y114.868
G1 F1800 X136.269 Y114.207 E30.81387
G0 F3600 X136.269 Y114.773
G1 F1800 X136.929 Y115.433 E30.83715
G0 F3600 X136.929 Y115.999
G1 F1800 X136.269 Y115.339 E30.86044
G0 F3600 X136.269 Y115.904
G1 F1800 X136.929 Y116.565 E30.88374
G0 F3600 X136.929 Y117.13
G1 F1800 X136.269 Y116.47 E30.90702
G0 F3600 X136.269 Y117.036
G1 F1800 X136.929 Y117.696 E30.9303
G0 F3600 X136.929 Y118.262
G1 F1800 X136.269 Y117.601 E30.95361
G0 F3600 X136.269 Y118.167
G1 F1800 X136.929 Y118.827 E30.97689
G0 F3600 X136.929 Y119.393
G1 F1800 X136.269 Y118.733 E31.00017
G0 F3600 X136.269 Y119.298
G1 F1800 X136.929 Y119.959 E31.02347
G0 F3600 X136.929 Y120.524
G1 F1800 X136.269 Y119.864 E31.04676
G0 F3600 X136.269 Y120.43
G1 F1800 X136.929 Y121.09 E31.07004
G0 F3600 X136.929 Y121.656
G1 F1800 X136.269 Y120.995 E31.09334
G0 F3600 X136.269 Y121.561
G1 F1800 X136.929 Y122.221 E31.11662
G0 F3600 X136.929 Y122.787
G1 F1800 X136.269 Y122.127 E31.13991
G0 F3600 X136.269 Y122.692
G1 F1800 X136.929 Y123.353 E31.16321
G0 F3600 X137.046 Y123.47
G1 F1800 X142.929 Y129.353 E31.37075
G0 F3600 X142.929 Y129.918
G1 F1800 X136.269 Y123.258 E31.6057
G0 F3600 X136.269 Y123.824
G1 F1800 X142.575 Y130.13 E31.82816
G0 F3600 X142.009 Y130.13
G1 F1800 X136.269 Y124.389 E32.03067
G0 F3600 X136.269 Y124.955
G1 F1800 X141.443 Y130.13 E32.21321
G0 F3600 X140.878 Y130.13
G1 F1800 X136.269 Y125.521 E32.37581
G0 F3600 X136.269 Y126.087
G1 F1800 X140.312 Y130.13 E32.51844
G0 F3600 X139.746 Y130.13
G1 F1800 X136.269 Y126.652 E32.64111
G0 F3600 X136.269 Y127.218
G1 F1800 X139.181 Y130.13 E32.74384
G0 F3600 X138.615 Y130.13
G1 F1800 X136.269 Y127.784 E32.8266
G0 F3600 X136.269 Y128.349
G1 F1800 X138.049 Y130.13 E32.88942
G0 F3600 X137.484 Y130.13
G1 F1800 X136.269 Y128.915 E32.93228
G0 F3600 X136.269 Y129.481
G1 F1800 X136.918 Y130.13 E32.95517
G0 F3600 X136.352 Y130.13
G1 F1800 X136.269 Y130.046 E32.95812
G0 F3600 X137.612 Y123.47
G1 F1800 X142.929 Y128.787 E33.14569
G0 F3600 X142.929 Y128.221
G1 F1800 X138.177 Y123.47 E33.31331
G0 F3600 X138.743 Y123.47
G1 F1800 X142.929 Y127.656 E33.46099
G0 F3600 X142.929 Y127.09
G1 F1800 X139.309 Y123.47 E33.58869
G0 F3600 X139.874 Y123.47
G1 F1800 X142.929 Y126.524 E33.69645
G0 F3600 X142.929 Y125.959
G1 F1800 X140.44 Y123.47 E33.78425
G0 F3600 X141.006 Y123.47
G1 F1800 X142.929 Y125.393 E33.85209
G0 F3600 X142.929 Y124.827
G1 F1800 X141.571 Y123.47 E33.89998
G0 F3600 X142.137 Y123.47
G1 F1800 X142.929 Y124.261 E33.9279
G0 F3600 X142.929 Y123.696
G1 F1800 X142.703 Y123.47 E33.93588
G1 F2100 E33.13588
G0 F3600 X135.72 Y122.97
G0 X134.435 Y122.97
G0 X115.565 Y122.97
G0 X114.28 Y122.97
G0 X112.57 Y122.97
G0 X112.5 Y122.9
;TYPE:WALL-INNER
G1 F2100 E33.93588
G1 F1800 X112.5 Y87.1 E34.82891
G1 X106.5 Y87.1 E34.97858
G1 X106.5 Y79.3 E35.17315
G1 X114.3 Y79.3 E35.36773
G1 X114.3 Y130.7 E36.6499
G1 X106.5 Y130.7 E36.84448
G1 X106.5 Y122.9 E37.03905
G1 X112.5 Y122.9 E37.18872
G0 F3600 X112.1 Y122.5
;TYPE:WALL-OUTER
G1 F1800 X112.1 Y87.5 E38.0618
G1 X106.1 Y87.5 E38.21147
G1 X106.1 Y78.9 E38.42599
G1 X114.7 Y78.9 E38.64052
G1 X114.7 Y131.1 E39.94266
G1 X106.1 Y131.1 E40.15718
G1 X106.1 Y122.5 E40.37171
G1 X112.1 Y122.5 E40.52138
G0 F3600 X112.1 Y122.3
G0 X112.6 Y122.3
G0 X112.89 Y123.29
;TYPE:SKIN
G1 F1800 X112.89 Y86.71 E41.43388
G1 X106.89 Y86.71 E41.58355
G1 X106.89 Y79.69 E41.75866
G1 X113.91 Y79.69 E41.93377
G1 X113.91 Y130.31 E43.1965
G1 X106.89 Y130.31 E43.37161
G1 X106.89 Y123.29 E43.54673
G1 X112.89 Y123.29 E43.6964
G0 F3600 X107.501 Y130.128
G1 F1800 X107.07 Y129.697 E43.7116
G0 F3600 X107.07 Y129.131
G1 F1800 X108.067 Y130.128 E43.74677
G0 F3600 X108.632 Y130.128
G1 F1800 X107.07 Y128.566 E43.80188
G0 F3600 X107.07 Y128
G1 F1800 X109.198 Y130.128 E43.87695
G0 F3600 X109.764 Y130.128
G1 F1800 X107.07 Y127.434 E43.97199
G0 F3600 X107.07 Y126.869
G1 F1800 X110.329 Y130.128 E44.08696
