;FLAVOR:Marlin
;TIME:2764
;Filament used: 1.49213m
;Layer height: 0.2
;Generated with Cura_SteamEngine 3.6.0
M82 ;absolute extrusion mode
G21 ; set units to millimeters
G90 ; use absolute positioning
M82 ; absolute extrusion mode
M104 S215 ; set extruder temp
M140 S60 ; set bed temp
M190 S60 ; wait for bed temp
M109 S215 ; wait for extruder temp
G28 W ; home all without mesh bed level
G80 ; mesh bed leveling
G92 E0.0 ; reset extruder distance position
G1 Y-3.0 F1000.0 ; go outside print area
G1 X60.0 E9.0 F1000.0 ; intro line
G1 X100.0 E21.5 F1000.0 ; intro line
G92 E0.0 ; reset extruder distance position
G92 E0
G1 F2100 E-0.8
;LAYER_COUNT:224
;LAYER:0
M107
G0 F3600 X100.638 Y86.769 Z0.15
;TYPE:SKIRT
G1 F2100 E0
G1 F1800 X101.03 Y86.403 E0.01338
G1 X101.472 Y86.1 E0.02675
G1 X101.955 Y85.865 E0.04014
G1 X102.466 Y85.705 E0.0535
G1 X102.996 Y85.622 E0.06688
G1 X103.283 Y85.611 E0.07405
G1 X153.927 Y85.612 E1.33737
G1 X154.462 Y85.652 E1.35075
G1 X154.985 Y85.771 E1.36413
G1 X155.484 Y85.966 E1.3775
G1 X155.949 Y86.234 E1.39088
G1 X156.369 Y86.567 E1.40425
G1 X156.735 Y86.959 E1.41763
G1 X157.038 Y87.401 E1.431
G1 X157.324 Y88.021 E1.44803
G1 X159.403 Y93.953 E1.60483
G1 X160.318 Y96.234 E1.66614
G1 X160.48 Y96.745 E1.67951
G1 X160.565 Y97.275 E1.6929
G1 X160.577 Y97.571 E1.70029
G1 X160.579 Y100.095 E1.76325
G1 X160.539 Y100.63 E1.77663
G1 X160.35 Y101.361 E1.79547
G1 X157.929 Y107.819 E1.96751
G1 X157.345 Y109.596 E2.01417
G1 X157.14 Y110.092 E2.02756
G1 X156.863 Y110.551 E2.04093
G1 X156.522 Y110.964 E2.05429
G1 X156.122 Y111.323 E2.0677
G1 X155.674 Y111.617 E2.08107
G1 X155.188 Y111.842 E2.09443
G1 X154.673 Y111.992 E2.10781
G1 X153.925 Y112.071 E2.12657
G1 X103.283 Y112.072 E3.38984
G1 X102.748 Y112.032 E3.40322
G1 X102.225 Y111.913 E3.4166
G1 X101.726 Y111.718 E3.42997
G1 X101.261 Y111.451 E3.44334
G1 X100.841 Y111.117 E3.45673
G1 X100.475 Y110.725 E3.47011
G1 X100.172 Y110.283 E3.48347
G1 X99.937 Y109.801 E3.49685
G1 X99.777 Y109.289 E3.51023
G1 X99.694 Y108.759 E3.52361
G1 X99.683 Y108.472 E3.53078
G1 X99.683 Y89.211 E4.01125
G1 X99.723 Y88.676 E4.02463
G1 X99.842 Y88.153 E4.03801
G1 X100.037 Y87.654 E4.05137
G1 X100.305 Y87.189 E4.06476
G1 X100.638 Y86.769 E4.07813
G0 F3600 X101.032 Y86.936
G1 F1800 X101.419 Y86.61 E4.09075
G1 X101.852 Y86.349 E4.10337
G1 X102.32 Y86.159 E4.11597
G1 X102.813 Y86.046 E4.12858
G1 X103.283 Y86.011 E4.14034
G1 X153.927 Y86.012 E5.40366
G1 X154.431 Y86.052 E5.41627
G1 X154.922 Y86.171 E5.42887
G1 X155.389 Y86.366 E5.4415
G1 X155.819 Y86.631 E5.4541
G1 X156.202 Y86.962 E5.46672
G1 X156.528 Y87.348 E5.47933
G1 X156.789 Y87.781 E5.49194
G1 X156.947 Y88.154 E5.50204
G1 X159.029 Y94.094 E5.65906
G1 X159.947 Y96.383 E5.72058
G1 X160.098 Y96.865 E5.73318
G1 X160.177 Y97.571 E5.7509
G1 X160.179 Y100.095 E5.81386
G1 X160.139 Y100.599 E5.82647
G1 X159.975 Y101.221 E5.84252
G1 X157.554 Y107.681 E6.01461
G1 X156.965 Y109.471 E6.06161
G1 X156.769 Y109.937 E6.07422
G1 X156.503 Y110.367 E6.08684
G1 X156.172 Y110.749 E6.09945
G1 X155.785 Y111.075 E6.11207
G1 X155.352 Y111.335 E6.12467
G1 X154.883 Y111.524 E6.13728
G1 X154.39 Y111.637 E6.1499
G1 X153.925 Y111.671 E6.16153
G1 X103.283 Y111.672 E7.4248
G1 X102.779 Y111.632 E7.43741
G1 X102.288 Y111.513 E7.45001
G1 X101.821 Y111.319 E7.46263
G1 X101.391 Y111.053 E7.47524
G1 X101.008 Y110.723 E7.48785
G1 X100.682 Y110.336 E7.50047
G1 X100.421 Y109.903 E7.51309
G1 X100.231 Y109.435 E7.52569
G1 X100.118 Y108.942 E7.5383
G1 X100.083 Y108.472 E7.55006
G1 X100.083 Y89.211 E8.03053
G1 X100.123 Y88.707 E8.04314
G1 X100.242 Y88.216 E8.05574
G1 X100.436 Y87.749 E8.06836
G1 X100.702 Y87.319 E8.08097
G1 X101.032 Y86.936 E8.09358
G1 F2100 E7.29358
G0 F3600 X154.09 Y88.541
G0 X154.594 Y89.045
G0 X154.833 Y97.776
;TYPE:SUPPORT
G1 F2100 E8.09358
G1 F1800 X156.789 Y97.776 E8.14237
G1 X156.789 Y99.907 E8.19553
G1 X154.833 Y99.907 E8.24432
G1 X154.833 Y97.776 E8.29748
G0 F3600 X154.993 Y98.679
G1 F1800 X156.629 Y98.679 E8.33829
G1 F2100 E7.53829
;MESH:tilt_servo_mount.STL(1)
G0 F3600 X154.598 Y98.679
G0 X153.313 Y98.679
G0 X146.722 Y99.624
G0 X146.633 Y99.58
;TYPE:WALL-INNER
G1 F2100 E8.33829
G1 F1800 X146.735 Y99.318 E8.3453
G1 X146.793 Y99.043 E8.35232
G1 X146.802 Y98.766 E8.35923
G1 X146.768 Y98.491 E8.36614
G1 X146.684 Y98.218 E8.37327
G1 X146.555 Y97.969 E8.38026
G1 X146.391 Y97.747 E8.38715
G1 X146.185 Y97.552 E8.39422
G1 X145.952 Y97.396 E8.40122
G1 X145.697 Y97.282 E8.40818
G1 X145.427 Y97.213 E8.41514
G1 X145.147 Y97.189 E8.42215
G1 X144.867 Y97.215 E8.42916
G1 X144.597 Y97.287 E8.43613
G1 X144.341 Y97.403 E8.44314
G1 X144.11 Y97.561 E8.45012
G1 X143.908 Y97.756 E8.45713
G1 X143.744 Y97.982 E8.46409
G1 X143.618 Y98.232 E8.47108
G1 X143.537 Y98.499 E8.47804
G1 X143.502 Y98.779 E8.48508
G1 X143.516 Y99.059 E8.49207
G1 X143.575 Y99.33 E8.49899
G1 X143.681 Y99.592 E8.50604
G1 X143.829 Y99.829 E8.51301
G1 X144.014 Y100.039 E8.51999
G1 X144.235 Y100.215 E8.52704
G1 X144.479 Y100.349 E8.53398
G1 X144.743 Y100.442 E8.54096
G1 X145.02 Y100.488 E8.54797
G1 X145.298 Y100.487 E8.5549
G1 X145.575 Y100.439 E8.56191
G1 X145.842 Y100.344 E8.56898
G1 X146.083 Y100.207 E8.5759
G1 X146.299 Y100.032 E8.58283
G1 X146.485 Y99.819 E8.58989
G1 X146.633 Y99.58 E8.5969
G0 F3600 X146.722 Y99.624
G0 X146.818 Y98.927
G0 X146.679 Y91.552
G0 X146.593 Y91.602
G1 F1800 X146.248 Y91.602 E8.60551
G1 X146.247 Y91.602 E8.60553
G1 X131.144 Y91.602 E8.98228
G1 X130.904 Y92.491 E9.00525
G1 X140.344 Y97.942 E9.27717
G1 X142.933 Y97.942 E9.34175
G1 X146.42 Y91.901 E9.51575
G1 X146.593 Y91.602 E9.52063
G0 F3600 X146.679 Y91.552
G0 X131.12 Y91.571
G0 X128.603 Y93.141
G0 X128.603 Y93.241
G1 F1800 X122.101 Y96.996 E9.70793
G1 X122.101 Y100.688 E9.80003
G1 X128.603 Y104.442 E9.98731
G1 X135.105 Y100.688 E10.1746
G1 X135.105 Y96.996 E10.26669
G1 X128.603 Y93.241 E10.45399
G0 F3600 X128.603 Y93.141
G0 X126.394 Y92.529
G0 X126.302 Y92.491
G1 F1800 X126.062 Y91.602 E10.47696
G1 X111.307 Y91.602 E10.84503
G1 X110.959 Y92.202 E10.86233
G1 X114.274 Y97.942 E11.02768
G1 X116.862 Y97.942 E11.09223
G1 X126.302 Y92.491 E11.36416
G0 F3600 X126.394 Y92.529
G0 X122.067 Y96.977
G0 X122.067 Y100.708
G0 X126.394 Y105.154
G0 X126.302 Y105.192
G1 F1800 X116.862 Y99.742 E11.63606
G1 X114.274 Y99.742 E11.70062
G1 X110.959 Y105.481 E11.86595
G1 X111.307 Y106.081 E11.88325
G1 X126.062 Y106.081 E12.25132
G1 X126.302 Y105.192 E12.27429
G0 F3600 X126.394 Y105.154
G0 X130.812 Y105.154
G0 X130.904 Y105.192
G1 F1800 X131.144 Y106.081 E12.29726
G1 X146.131 Y106.081 E12.67111
G1 X146.362 Y105.681 E12.68263
G1 X142.933 Y99.742 E12.8537
G1 X140.344 Y99.742 E12.91828
G1 X130.904 Y105.192 E13.19019
G0 F3600 X130.812 Y105.154
G0 X120.518 Y101.841
G0 X116.873 Y99.704
G0 X113.622 Y99.623
G0 X113.533 Y99.58
G1 F1800 X113.635 Y99.318 E13.1972
G1 X113.693 Y99.043 E13.20422
G1 X113.702 Y98.766 E13.21113
G1 X113.668 Y98.491 E13.21804
G1 X113.584 Y98.218 E13.22517
G1 X113.454 Y97.969 E13.23217
G1 X113.29 Y97.746 E13.23908
G1 X113.085 Y97.552 E13.24612
G1 X112.852 Y97.396 E13.25311
G1 X112.597 Y97.282 E13.26008
G1 X112.327 Y97.213 E13.26703
G1 X112.047 Y97.189 E13.27404
G1 X111.767 Y97.215 E13.28106
G1 X111.496 Y97.287 E13.28805
G1 X111.242 Y97.403 E13.29502
G1 X111.012 Y97.559 E13.30195
G1 X110.808 Y97.756 E13.30902
G1 X110.644 Y97.982 E13.31599
G1 X110.518 Y98.232 E13.32297
G1 X110.437 Y98.499 E13.32993
G1 X110.402 Y98.779 E13.33697
G1 X110.416 Y99.059 E13.34397
G1 X110.475 Y99.33 E13.35088
G1 X110.581 Y99.592 E13.35794
G1 X110.729 Y99.829 E13.36491
G1 X110.914 Y100.039 E13.37189
G1 X111.135 Y100.215 E13.37893
G1 X111.379 Y100.349 E13.38588
G1 X111.643 Y100.442 E13.39286
G1 X111.92 Y100.488 E13.39986
G1 X112.198 Y100.487 E13.4068
G1 X112.475 Y100.439 E13.41381
G1 X112.742 Y100.344 E13.42088
G1 X112.983 Y100.207 E13.4278
G1 X113.201 Y100.031 E13.43479
G1 X113.385 Y99.819 E13.44179
G1 X113.533 Y99.58 E13.4488
G0 F3600 X113.622 Y99.623
G0 X113.741 Y98.762
G0 X113.633 Y98.259
G0 X109.777 Y91.552
G0 X109.691 Y91.602
G1 F1800 X109.346 Y91.602 E13.45741
G1 X109.345 Y91.602 E13.45743
G1 X103.874 Y91.602 E13.59391
G1 X103.874 Y89.802 E13.63881
G1 X153.333 Y89.802 E14.87257
G1 X153.333 Y91.602 E14.91747
G1 X148.209 Y91.602 E15.04529
G1 X147.861 Y92.202 E15.06259
G1 X151.176 Y97.942 E15.22794
G1 X153.333 Y97.942 E15.28174
G1 X153.333 Y99.742 E15.32665
G1 X151.176 Y99.742 E15.38045
G1 X147.861 Y105.481 E15.54578
G1 X148.209 Y106.081 E15.56308
G1 X153.333 Y106.081 E15.6909
G1 X153.333 Y107.881 E15.7358
G1 X103.874 Y107.881 E16.96956
G1 X103.874 Y106.081 E17.01446
G1 X109.229 Y106.081 E17.14804
G1 X109.46 Y105.681 E17.15957
G1 X106.031 Y99.742 E17.33063
G1 X103.874 Y99.742 E17.38444
G1 X103.874 Y97.942 E17.42934
G1 X106.031 Y97.942 E17.48315
G1 X109.518 Y91.901 E17.65714
G1 X109.691 Y91.602 E17.66203
G0 F3600 X109.777 Y91.552
G0 X113.621 Y98.203
G0 X113.741 Y98.762
G0 X113.599 Y99.661
G0 X113.173 Y99.401
;TYPE:WALL-OUTER
G1 F1800 X113.25 Y99.203 E17.66733
G1 X113.294 Y98.995 E17.67263
G1 X113.301 Y98.784 E17.6779
G1 X113.275 Y98.575 E17.68315
G1 X113.212 Y98.37 E17.6885
G1 X113.114 Y98.181 E17.69381
G1 X112.989 Y98.012 E17.69905
G1 X112.834 Y97.865 E17.70438
G1 X112.658 Y97.747 E17.70967
G1 X112.465 Y97.661 E17.71494
G1 X112.26 Y97.609 E17.72022
G1 X112.048 Y97.591 E17.72552
G1 X111.837 Y97.61 E17.73081
G1 X111.632 Y97.665 E17.7361
G1 X111.439 Y97.753 E17.74139
G1 X111.265 Y97.871 E17.74664
G1 X111.111 Y98.02 E17.75198
G1 X110.986 Y98.191 E17.75727
G1 X110.891 Y98.38 E17.76254
G1 X110.83 Y98.583 E17.76783
G1 X110.803 Y98.794 E17.77314
G1 X110.814 Y99.006 E17.77843
G1 X110.859 Y99.212 E17.78369
G1 X110.939 Y99.41 E17.78902
G1 X111.051 Y99.589 E17.79429
G1 X111.191 Y99.748 E17.79957
G1 X111.358 Y99.881 E17.8049
G1 X111.543 Y99.983 E17.81017
G1 X111.743 Y100.053 E17.81545
G1 X111.952 Y100.088 E17.82074
G1 X112.163 Y100.087 E17.826
G1 X112.373 Y100.051 E17.83132
G1 X112.574 Y99.979 E17.83664
G1 X112.757 Y99.875 E17.84189
G1 X112.922 Y99.742 E17.84718
G1 X113.062 Y99.581 E17.8525
G1 X113.173 Y99.401 E17.85778
G0 F3600 X113.245 Y99.215
G0 X113.711 Y99.396
G0 X109.25 Y106.115
G0 X108.998 Y106.181
G0 X108.998 Y105.681
G1 F1800 X108.825 Y105.382 E17.8664
G1 X105.8 Y100.142 E18.01732
G1 X103.474 Y100.142 E18.07535
G1 X103.474 Y97.542 E18.1402
G1 X105.8 Y97.542 E18.19823
G1 X108.825 Y92.301 E18.34918
G1 X108.998 Y92.002 E18.3578
G1 X108.653 Y92.002 E18.36267
G1 X108.652 Y92.002 E18.3627
G1 X103.474 Y92.002 E18.49186
G1 X103.474 Y89.402 E18.55672
G1 X153.733 Y89.402 E19.81044
G1 X153.733 Y92.002 E19.87529
G1 X148.585 Y92.002 E20.00371
G1 X148.439 Y92.002 E20.00735
G1 X148.323 Y92.202 E20.01312
G1 X148.396 Y92.328 E20.01675
G1 X151.407 Y97.542 E20.16695
G1 X153.733 Y97.542 E20.22497
G1 X153.733 Y100.142 E20.28983
G1 X151.407 Y100.142 E20.34785
G1 X148.396 Y105.355 E20.49802
G1 X148.323 Y105.481 E20.50165
G1 X148.439 Y105.681 E20.50742
G1 X148.585 Y105.681 E20.51106
G1 X153.733 Y105.681 E20.63948
G1 X153.733 Y108.281 E20.70434
G1 X103.474 Y108.281 E21.95805
G1 X103.474 Y105.681 E22.02291
G1 X108.652 Y105.681 E22.15207
G1 X108.653 Y105.681 E22.1521
G1 X108.998 Y105.681 E22.15698
G0 F3600 X108.898 Y105.508
G0 X109.331 Y105.259
G0 X111.288 Y106.115
G0 X126.086 Y106.112
G0 X126.317 Y105.515
G0 X125.836 Y105.385
G1 F1800 X125.685 Y105.298 E22.16132
G1 X116.755 Y100.142 E22.41855
G1 X114.505 Y100.142 E22.47467
G1 X111.494 Y105.355 E22.62485
G1 X111.421 Y105.481 E22.62848
G1 X111.537 Y105.681 E22.63425
G1 X111.683 Y105.681 E22.63789
G1 X125.581 Y105.681 E22.98457
G1 X125.756 Y105.681 E22.98845
G1 X125.836 Y105.385 E22.9961
G0 F3600 X125.685 Y105.298
G0 X125.663 Y105.285
G0 X125.914 Y104.853
G0 X122.067 Y100.708
G0 X122.067 Y96.977
G0 X128.603 Y93.201
G0 X128.854 Y93.271
G0 X128.603 Y93.703
G1 F1800 X122.501 Y97.227 E23.17187
G1 X122.501 Y100.457 E23.25244
G1 X128.603 Y103.98 E23.42821
G1 X134.705 Y100.457 E23.60397
G1 X134.705 Y97.227 E23.68454
G1 X128.603 Y93.703 E23.86032
G0 F3600 X128.43 Y93.803
G0 X128.181 Y93.37
G0 X126.318 Y92.168
G0 X125.836 Y92.298
G1 F1800 X125.756 Y92.002 E23.86797
G1 X125.581 Y92.002 E23.87233
G1 X111.683 Y92.002 E24.21902
G1 X111.537 Y92.002 E24.22266
G1 X111.421 Y92.202 E24.22843
G1 X111.494 Y92.328 E24.23206
G1 X114.505 Y97.542 E24.38225
G1 X116.755 Y97.542 E24.43838
G1 X125.685 Y92.385 E24.69562
G1 X125.836 Y92.298 E24.69947
G0 F3600 X125.784 Y92.105
G0 X126.266 Y91.975
G0 X131.12 Y91.571
G0 X145.9 Y91.502
G0 X145.9 Y92.002
G1 F1800 X145.555 Y92.002 E24.70807
G1 X145.554 Y92.002 E24.7081
G1 X131.625 Y92.002 E25.05556
G1 X131.45 Y92.002 E25.05993
G1 X131.37 Y92.298 E25.06757
G1 X131.521 Y92.385 E25.07143
G1 X140.451 Y97.542 E25.32866
G1 X142.702 Y97.542 E25.38481
G1 X145.727 Y92.301 E25.53577
G1 X145.9 Y92.002 E25.54065
G0 F3600 X145.7 Y92.002
G0 X145.7 Y91.502
G0 X146.627 Y91.582
G0 X146.832 Y99.044
G0 X146.698 Y99.664
G0 X146.273 Y99.401
G1 F1800 X146.35 Y99.203 E25.54595
G1 X146.394 Y98.995 E25.55125
G1 X146.401 Y98.784 E25.55652
G1 X146.375 Y98.575 E25.56177
G1 X146.312 Y98.37 E25.56712
G1 X146.214 Y98.181 E25.57243
G1 X146.09 Y98.013 E25.57764
G1 X145.934 Y97.865 E25.58301
G1 X145.758 Y97.747 E25.58829
G1 X145.565 Y97.661 E25.59356
G1 X145.36 Y97.609 E25.59884
G1 X145.148 Y97.591 E25.60414
G1 X144.937 Y97.61 E25.60943
G1 X144.732 Y97.665 E25.61472
G1 X144.538 Y97.753 E25.62004
G1 X144.364 Y97.872 E25.6253
G1 X144.211 Y98.02 E25.63061
G1 X144.086 Y98.191 E25.63589
G1 X143.991 Y98.38 E25.64117
G1 X143.93 Y98.583 E25.64645
G1 X143.903 Y98.794 E25.65176
G1 X143.914 Y99.006 E25.65706
G1 X143.959 Y99.212 E25.66232
G1 X144.039 Y99.41 E25.66764
G1 X144.151 Y99.589 E25.67291
G1 X144.291 Y99.748 E25.6782
G1 X144.458 Y99.881 E25.68352
G1 X144.643 Y99.983 E25.68879
G1 X144.843 Y100.053 E25.69408
G1 X145.052 Y100.088 E25.69936
G1 X145.263 Y100.087 E25.70463
G1 X145.473 Y100.051 E25.70994
G1 X145.674 Y99.979 E25.71527
G1 X145.857 Y99.875 E25.72052
G1 X146.021 Y99.743 E25.72577
G1 X146.162 Y99.581 E25.73113
G1 X146.273 Y99.401 E25.7364
G0 F3600 X146.345 Y99.215
G0 X146.811 Y99.396
G0 X146.402 Y105.681
G0 X146.177 Y106.071
G0 X145.9 Y106.181
G0 X145.9 Y105.681
G1 F1800 X145.727 Y105.382 E25.74502
G1 X142.702 Y100.142 E25.89595
G1 X140.451 Y100.142 E25.9521
G1 X131.521 Y105.298 E26.20932
G1 X131.37 Y105.385 E26.21367
G1 X131.45 Y105.681 E26.22132
G1 X131.625 Y105.681 E26.22519
G1 X145.554 Y105.681 E26.57265
G1 X145.555 Y105.681 E26.57268
G1 X145.9 Y105.681 E26.57755
G0 F3600 X145.8 Y105.508
G0 X146.233 Y105.259
G0 X146.812 Y105.681
;TYPE:SKIN
G1 F1800 X143.668 Y100.235 E26.73442
G1 X143.745 Y100.322 E26.73732
G1 X144.018 Y100.541 E26.74605
G1 X144.319 Y100.706 E26.75461
G1 X144.645 Y100.821 E26.76323
G1 X144.989 Y100.878 E26.77193
G1 X145.333 Y100.877 E26.78051
G1 X145.674 Y100.817 E26.78915
G1 X146.005 Y100.7 E26.79791
G1 X146.304 Y100.53 E26.80649
G1 X146.57 Y100.314 E26.81503
G1 X146.799 Y100.051 E26.82373
G1 X146.984 Y99.755 E26.83244
G1 X147.11 Y99.429 E26.84116
G1 X147.181 Y99.09 E26.8498
G1 X147.192 Y98.748 E26.85833
G1 X147.151 Y98.409 E26.86685
G1 X147.047 Y98.07 E26.8757
G1 X146.887 Y97.762 E26.88435
G1 X146.684 Y97.488 E26.89286
G1 X146.429 Y97.246 E26.90163
G1 X146.141 Y97.053 E26.91028
G1 X145.826 Y96.912 E26.91889
G1 X145.493 Y96.827 E26.92746
G1 X145.145 Y96.797 E26.93617
G1 X144.798 Y96.829 E26.94487
G1 X144.466 Y96.919 E26.95345
G1 X144.15 Y97.062 E26.9621
G1 X143.863 Y97.257 E26.97075
G1 X143.673 Y97.441 E26.97735
G1 X147.268 Y91.212 E27.15676
G1 X130.846 Y91.212 E27.56641
G1 X130.449 Y92.678 E27.60429
G1 X140.239 Y98.332 E27.88631
G1 X143.158 Y98.332 E27.95912
G1 X143.206 Y98.25 E27.96149
G1 X143.155 Y98.417 E27.96585
G1 X143.11 Y98.765 E27.9746
G1 X143.128 Y99.11 E27.98322
G1 X143.195 Y99.415 E27.99101
G1 X143.158 Y99.352 E27.99283
G1 X140.239 Y99.352 E28.06564
G1 X130.449 Y105.005 E28.34765
G1 X130.846 Y106.471 E28.38553
G1 X146.356 Y106.471 E28.77243
G1 X146.812 Y105.681 E28.79519
G0 F3600 X147.41 Y105.481
G1 F1800 X147.985 Y106.471 E28.82374
G1 X152.943 Y106.471 E28.94742
G1 X152.943 Y107.491 E28.97287
G1 X104.264 Y107.491 E30.18717
G1 X104.264 Y106.471 E30.21261
G1 X109.454 Y106.471 E30.34208
